X:18695
T:Whiskey Before Breakfast
S:Norman Blake, sessions (WM August 1997)
B:Fiddler's Fakebook
M:C|
L:1/8
R:Reel
A:Old time
K:D
DB,|"D" A,B,DE D2 DE | F2 (AF)AB F2 | "G"G2 BG "D"F2 AF | "A"EDEF EDB,G,|
"D"A,B,DE D2 DE | F2 (AF)BF AF | "G"G2 BG "D"F2 AF | "A"EDEF "D"D2 :||
dB| A2Bc d2 cd | "A"efed cBA2 | "Em"e2 ef e2 ef | gfed "A" cABc | 
"D"d2fd "A"c2ec | "G"BABc "D"dcBA | "Em"G2BG "D"F2AF | "A"EDEF "D"D2 :||


